X:1
T:I Shall See Them Again
T:I Shall See Them Again
T:Edward Husband
T:Edward Husband (1843-1908)
T:Public Domain Courtesy of the Cyber Hymnal™
T:Public Domain Courtesy of the Cyber Hymnal™
C:Edward Husband
Z:Public Domain
Z:Courtesy of the Cyber Hymnal™
%%score ( 1 2 ) ( 3 4 )
L:1/8
Q:1/4=115
M:4/4
K:G
V:1 treble 
V:2 treble 
V:3 bass 
V:4 bass 
V:1
 [B,D]2 [B,G]2 | [CF]4 [CE]2 [A,D]2 | D4 [DE]2 [CF]2 |!<(! G4!<)! [Ac]2!>(! [GB]2!>)! | %4
w: 1.~I shall|see them a-|gain in the|light of the|
w: 2.~I shall|know them a-|gain though ten|thou- sand sur-|
w: 3.~’Twas their|lives in the|past helped to|fill me with|
w: 4.~Would I|wish for them|back from their|bright home in|
 [GB]2 [FA]2 [EA]2 [DA]2 |!<(! d4!<)! [Fc]2!>(! [GB]2!>)! | [DA]4 [Dc]2 [DG]2 | %7
w: morn- ing, When the|night has passed|by with its|
w: round them, I shall|hear their dear|voice ’midst the|
w: glad- ness, And the|fu- ture is|Hea- ven, the|
w: Hea- ven? No! in|pa- tience I’ll|wait till the|
 [^CF]4 [B,F]2 [CE]2 | [^CE]2 D2 D2 D2 | E4 [B,F]2 F2 | G4 [=CA]2 [DA]2 | (B2 A2) [Ec]2 [FB]2 | %12
w: tears and its|mourn- ing, Where the|light of God’s|love is the|sun * ev- er|
w: bless- èd ones|round them, And the|love that was|theirs on the|earth * shall de-|
w: home with no|sad- ness, Where I|see them to-|day clad in|bright * robes of|
w: veil shall be|riv- en, And the|Sav- ior res-|tores me the|friends * He has|
 [EA]2 [EG]2 [^CF]2 [CE]2 | D4 [DG]2 [DG]2 | [EG]2 [DG]2 [DF]4 | [DG]4 |] %16
w: shin- ing, In the|land where the|wea- ry ones|rest.|
w: tect them, In the|land where the|wea- ry ones|rest.|
w: white- ness, In the|land where the|wea- ry ones|rest.|
w: giv- en, In the|land where the|wea- ry ones|rest.|
V:2
 x4 | x8 | (G,2 B,2) x4 | (B,2 G2) x4 | x8 | (D2 G2) x4 | x8 | x8 | x2 D2 D2 D2 | %9
 (D2 C2) (A,D) x2 | (D2 ^C2) x4 | D4 x4 | x8 | (C2 B,2) x4 | x8 | x4 |] %16
V:3
 [G,B,]2 [G,B,]2 | A,4 [C,F,]2 [C,F,]2 | [B,,G,]4 [C,B,]2 [D,A,]2 | (G,2 E2) [F,_E]2 [G,D]2 | %4
 [D,^C]2 [D,D]2 [^C,E,]2 [C,F,]2 | ([B,,G,]2 B,2) [A,D]2 [G,D]2 | [F,D]4 [E,B,]2 [E,_B,]2 | %7
 [A,,A,]4 [A,,G,]2 [A,,G,]2 | [D,G,]2 [D,F,]2 [B,,G,]2 [B,,G,]2 | (G,2 E2) [D,D]2 [D,C]2 | %10
 (B,2 A,2) [D,G,]2 [D,F,]2 | G,2 [F,A,]2 [E,G,]2 [^D,B,]2 | [E,C]2 [E,B,]2 [A,,A,]2 [A,,G,]2 | %13
 [D,G,]4 [D,B,]2 [D,B,]2 | [D,C]2 [D,B,]2 (A,2 C2) | [G,,B,]4 |] %16
V:4
 x4 | A,4 x4 | x8 | _E,4 x4 | x8 | x2 B,2 x4 | x8 | x8 | x8 | C,4 x4 | E,4 x4 | G,2 x6 | x8 | x8 | %14
 x4 D,4 | x4 |] %16

